**kern	**kern	**kern
*staff3	*staff2	*staff1
*tb32	*tb32	*tb32
*clefF4	*clefF4	*clefG2
*k[f#c#g#]	*k[f#c#g#]	*k[f#c#g#]
*M2/4	*M2/4	*M2/4
*A:	*A:	*A:
(8BBJ	8r	16G# 16B
.	.	16eJJ
=417	=417	=417
8C#'L)	2.r	16BLL
.	.	16A
8AA'	.	16a
.	.	16A
(8EJ	.	16a
.	.	16AJJ
8D#'L)	.	16BLL
.	.	16A
8BB'	.	16a
.	.	16A
(8F#J	.	16a
.	.	16AJJ
=418	=418	=418
8E'L)	2.r	16BLL
.	.	16G#
8BB'	.	16g#
.	.	16e
(8G#J	.	16g#
.	.	16eJJ
8B'L)	.	16g#LL
.	.	16e
8G#'	.	16g#
.	.	16e
8E'J	.	16G#
.	.	16eJJ
=419	=419	=419
8C#'L	2.r	16r
.	.	16ALL
8AA'	.	16a
.	.	16A
(8EJ	.	16a
.	.	16AJJ
8D#'L)	.	16BLL
.	.	16A
8BB'	.	16a
.	.	16A
(8F#J	.	16a
.	.	16AJJ
=420	=420	=420
8E'L)	2.r	16BLL
.	.	16G#
8G#'	.	16g#
.	.	16e
8B'J	.	16g#
.	.	16eJJ
8E'	.	16g#LL
.	.	16e
8r	.	16g#
.	.	16e
8r	.	16g#
.	.	16eJJ
=421	=421	=421
8C#'L	2.r	16r
.	.	16aLL
8AA'	.	16aa
.	.	16a
(8EJ	.	16aa
.	.	16aJJ
8D#'L)	.	16bLL
.	.	16a
8BB'	.	16aa
.	.	16a
(8F#J	.	16aa
.	.	16aJJ
=422	=422	=422
8E'L)	2.r	16bLL
.	.	16g#
8BB'	.	16gg#
.	.	16ee
(8G#J	.	16gg#
.	.	16eeJJ
8B'L)	.	16gg#LL
.	.	16ee
8G#'	.	16gg#
.	.	16ee
8E'J	.	16g#
.	.	16eeJJ
=423	=423	=423
8C#'L	2.r	16r
.	.	16aLL
8AA'	.	16aa
.	.	16a
(8EJ	.	16aa
.	.	16aJJ
8D#'L)	.	16bLL
.	.	16a
8BB'	.	16aa
.	.	16a
(8F#J	.	16aa
.	.	16aJJ
=424	=424	=424
8E'L)	2.r	16bLL
.	.	16g#
8BB'	.	16gg#
.	.	16ee
(8G#J	.	16gg#
.	.	16eeJJ
8F#'L)	.	16dd#LL
.	.	16b
8BB'	.	16bb
.	.	16b
(8AJ	.	16bb
.	.	16bJJ
=425	=425	=425
8G#'L)	2.r	16eeLL
.	.	16b
8BB'	.	16bb
.	.	16b
(8EJ	.	16bb
.	.	16bJJ
8BB'L)	.	16ff#LL
.	.	16b
8BB'	.	16bb
.	.	16b
8D#'J	.	16bb
.	.	16bJJ
=426	=426	=426
2.r;	2.r;	2.r;
=427	=427	=427
4E	4.r	4.r
8r	.	.
4r	4r	4r
*-	*-	*-
